flaticon/transport/crane-4.svg

<svg xmlns="http://www.w3.org/2000/svg" width="32" height="32" viewBox="0 0 24 24">
    <path d="M4.0625 17.480469C3.613281 17.480469 3.25 17.847656 3.25 18.292969 3.25 18.742188 3.613281 19.105469 4.0625 19.105469 4.507812 19.105469 4.875 18.742188 4.875 18.292969 4.875 17.847656 4.507812 17.480469 4.0625 17.480469zM19.085938 17.480469C18.640625 17.480469 18.273438 17.847656 18.273438 18.292969 18.273438 18.742188 18.640625 19.105469 19.085938 19.105469 19.53125 19.105469 19.898438 18.742188 19.898438 18.292969 19.898438 17.847656 19.53125 17.480469 19.085938 17.480469zM19.085938 17.480469"/>
    <path d="M 23.632812 10.863281 L 20.101562 6.964844 C 19.816406 6.679688 19.453125 6.519531 19.085938 6.519531 L 15.351562 6.519531 C 14.699219 6.519531 14.214844 7.003906 14.214844 7.613281 L 14.214844 13.828125 L 13.15625 13.828125 L 8.988281 12.203125 L 12.46875 12.203125 C 12.996094 12.203125 13.402344 11.796875 13.402344 11.269531 L 13.402344 10.699219 C 13.402344 10.171875 12.996094 9.765625 12.46875 9.765625 L 11.558594 9.765625 C 11.628906 9.640625 11.6875 9.503906 11.726562 9.359375 L 12.34375 9.359375 C 12.953125 9.359375 13.402344 8.914062 13.402344 8.34375 L 13.402344 6.761719 C 13.402344 6.152344 12.953125 5.707031 12.386719 5.707031 L 11.578125 5.707031 L 9.949219 3.429688 C 9.707031 3.066406 9.300781 2.863281 8.851562 2.863281 L 4.953125 2.863281 C 4.507812 2.863281 4.101562 3.066406 3.859375 3.429688 L 2.226562 5.707031 L 1.460938 5.707031 C 0.851562 5.707031 0.40625 6.152344 0.40625 6.761719 L 0.40625 8.304688 C 0.40625 8.914062 0.851562 9.359375 1.460938 9.359375 L 2.082031 9.359375 C 2.121094 9.503906 2.175781 9.640625 2.25 9.765625 L 1.339844 9.765625 C 0.8125 9.765625 0.40625 10.171875 0.40625 10.699219 L 0.40625 11.269531 C 0.40625 11.796875 0.8125 12.203125 1.339844 12.203125 L 4.832031 12.203125 L 0.691406 13.828125 L 0 13.828125 L 0 17.726562 C 0 18.253906 0.445312 18.699219 0.976562 18.699219 L 1.246094 18.699219 C 1.441406 20.089844 2.613281 21.136719 4.0625 21.136719 C 5.507812 21.136719 6.679688 20.089844 6.875 18.699219 L 16.273438 18.699219 C 16.464844 20.089844 17.640625 21.136719 19.085938 21.136719 C 20.53125 21.136719 21.707031 20.089844 21.898438 18.699219 L 22.984375 18.699219 C 23.511719 18.699219 23.960938 18.253906 24 17.765625 L 24 11.796875 C 24 11.429688 23.878906 11.105469 23.632812 10.863281 Z M 5.226562 9.359375 L 8.578125 9.359375 C 8.617188 9.503906 8.675781 9.640625 8.746094 9.765625 L 5.058594 9.765625 C 5.132812 9.640625 5.191406 9.503906 5.226562 9.359375 Z M 9.339844 8.953125 C 9.339844 8.507812 9.707031 8.140625 10.152344 8.140625 C 10.597656 8.140625 10.964844 8.507812 10.964844 8.953125 C 10.964844 9.402344 10.597656 9.765625 10.152344 9.765625 C 9.707031 9.765625 9.339844 9.402344 9.339844 8.953125 Z M 9.257812 3.878906 L 10.558594 5.707031 L 7.308594 5.707031 L 7.308594 3.675781 L 8.851562 3.675781 C 9.015625 3.675781 9.175781 3.757812 9.257812 3.878906 Z M 4.507812 3.878906 C 4.628906 3.757812 4.792969 3.675781 4.953125 3.675781 L 6.496094 3.675781 L 6.496094 5.707031 L 3.207031 5.707031 Z M 1.21875 8.34375 L 1.21875 6.761719 C 1.21875 6.640625 1.339844 6.519531 1.460938 6.519531 L 12.34375 6.519531 C 12.46875 6.519531 12.589844 6.640625 12.628906 6.761719 L 12.628906 8.304688 C 12.628906 8.425781 12.507812 8.546875 12.386719 8.546875 L 11.734375 8.546875 C 11.53125 7.859375 11.003906 7.328125 10.234375 7.328125 C 10.21875 7.328125 10.203125 7.332031 10.1875 7.332031 C 10.175781 7.332031 10.164062 7.328125 10.152344 7.328125 C 9.398438 7.328125 8.761719 7.851562 8.578125 8.546875 L 5.277344 8.546875 C 5.074219 7.859375 4.46875 7.328125 3.695312 7.328125 C 3.6875 7.328125 3.679688 7.332031 3.671875 7.332031 C 3.667969 7.332031 3.660156 7.328125 3.65625 7.328125 C 2.902344 7.328125 2.265625 7.851562 2.082031 8.546875 L 1.460938 8.546875 C 1.339844 8.546875 1.21875 8.425781 1.21875 8.34375 Z M 2.84375 8.953125 C 2.84375 8.507812 3.207031 8.140625 3.65625 8.140625 C 4.101562 8.140625 4.46875 8.507812 4.46875 8.953125 C 4.46875 9.402344 4.101562 9.765625 3.65625 9.765625 C 3.207031 9.765625 2.84375 9.402344 2.84375 8.953125 Z M 1.339844 11.390625 C 1.257812 11.390625 1.21875 11.351562 1.21875 11.269531 L 1.21875 10.699219 C 1.21875 10.621094 1.257812 10.578125 1.339844 10.578125 L 12.46875 10.578125 C 12.546875 10.578125 12.589844 10.621094 12.589844 10.699219 L 12.589844 11.269531 C 12.589844 11.351562 12.546875 11.390625 12.46875 11.390625 Z M 19.085938 7.328125 C 19.25 7.328125 19.371094 7.371094 19.492188 7.492188 L 22.984375 11.390625 L 17.054688 11.390625 L 17.054688 7.328125 Z M 6.902344 12.242188 L 10.890625 13.828125 L 2.917969 13.828125 Z M 4.0625 20.324219 C 2.925781 20.324219 2.03125 19.429688 2.03125 18.292969 C 2.03125 17.15625 2.925781 16.265625 4.0625 16.265625 C 5.199219 16.265625 6.089844 17.15625 6.089844 18.292969 C 6.089844 19.429688 5.199219 20.324219 4.0625 20.324219 Z M 19.085938 20.324219 C 17.949219 20.324219 17.054688 19.429688 17.054688 18.292969 C 17.054688 17.15625 17.949219 16.265625 19.085938 16.265625 C 20.222656 16.265625 21.117188 17.15625 21.117188 18.292969 C 21.117188 19.429688 20.222656 20.324219 19.085938 20.324219 Z M 22.984375 17.886719 L 21.898438 17.886719 C 21.707031 16.5 20.53125 15.453125 19.085938 15.453125 C 19.078125 15.453125 19.074219 15.453125 19.066406 15.453125 C 19.058594 15.453125 19.050781 15.453125 19.046875 15.453125 C 17.625 15.453125 16.445312 16.507812 16.242188 17.886719 L 6.875 17.886719 C 6.691406 16.585938 5.648438 15.585938 4.328125 15.464844 C 4.316406 15.464844 4.308594 15.464844 4.300781 15.460938 C 4.265625 15.460938 4.230469 15.457031 4.199219 15.457031 C 4.152344 15.453125 4.105469 15.453125 4.0625 15.453125 C 4.015625 15.453125 3.96875 15.453125 3.921875 15.457031 C 3.890625 15.457031 3.855469 15.460938 3.824219 15.460938 C 3.8125 15.464844 3.804688 15.464844 3.792969 15.464844 C 2.472656 15.585938 1.429688 16.585938 1.246094 17.886719 L 0.976562 17.886719 C 0.894531 17.886719 0.8125 17.808594 0.8125 17.726562 L 0.8125 14.640625 L 15.027344 14.640625 L 15.027344 7.65625 C 15.027344 7.453125 15.1875 7.328125 15.351562 7.328125 L 16.242188 7.328125 L 16.242188 11.511719 C 16.242188 11.878906 16.570312 12.203125 16.933594 12.203125 L 23.148438 12.203125 L 23.148438 13.421875 L 21.117188 13.421875 C 20.875 13.421875 20.710938 13.582031 20.710938 13.828125 C 20.710938 14.070312 20.875 14.234375 21.117188 14.234375 L 23.148438 14.234375 L 23.148438 17.726562 C 23.148438 17.808594 23.066406 17.886719 22.984375 17.886719 Z M 22.984375 17.886719"/>
</svg>

<svg xmlns="http://www.w3.org/2000/svg" width="32" height="32" viewBox="0 0 24 24">
    <path d="M4.063 17.48a.812.812 0 1 0-.001 1.626.812.812 0 0 0 0-1.626zm0 0M19.086 17.48a.817.817 0 0 0-.813.813c0 .45.368.812.813.812a.814.814 0 0 0 .812-.812.817.817 0 0 0-.812-.813zm0 0"/>
    <path d="M23.633 10.863l-3.531-3.898a1.448 1.448 0 0 0-1.016-.445h-3.734c-.653 0-1.137.484-1.137 1.093v6.215h-1.059l-4.168-1.625h3.48a.919.919 0 0 0 .934-.933v-.57a.919.919 0 0 0-.933-.934h-.91a1.78 1.78 0 0 0 .168-.407h.617c.61 0 1.058-.445 1.058-1.015V6.762c0-.61-.449-1.055-1.015-1.055h-.809L9.95 3.43a1.296 1.296 0 0 0-1.097-.567H4.953c-.445 0-.851.203-1.094.567L2.227 5.707H1.46c-.61 0-1.055.445-1.055 1.055v1.543c0 .61.446 1.054 1.055 1.054h.621c.04.145.094.282.168.407h-.91a.919.919 0 0 0-.934.933v.57c0 .528.406.934.934.934h3.492l-4.14 1.625H0v3.899c0 .527.445.972.977.972h.27a2.821 2.821 0 0 0 2.815 2.438 2.82 2.82 0 0 0 2.813-2.438h9.398a2.817 2.817 0 0 0 2.813 2.438 2.817 2.817 0 0 0 2.812-2.438h1.086c.528 0 .977-.445 1.016-.933v-5.97c0-.366-.121-.69-.367-.933zM5.227 9.36h3.351c.04.145.098.282.168.407H5.06c.074-.125.132-.262.168-.407zm4.113-.406c0-.445.367-.812.812-.812.446 0 .813.367.813.812 0 .45-.367.813-.813.813a.814.814 0 0 1-.812-.813zM9.258 3.88l1.3 1.828h-3.25V3.676h1.544c.164 0 .324.082.406.203zm-4.75 0a.655.655 0 0 1 .445-.203h1.543v2.031H3.207zm-3.29 4.465V6.762a.26.26 0 0 1 .243-.242h10.883c.125 0 .246.12.285.242v1.543a.26.26 0 0 1-.242.242h-.653c-.203-.688-.73-1.219-1.5-1.219-.015 0-.03.004-.046.004-.012 0-.024-.004-.036-.004-.754 0-1.39.524-1.574 1.219h-3.3c-.204-.688-.81-1.219-1.583-1.219-.007 0-.015.004-.023.004l-.016-.004c-.754 0-1.39.524-1.574 1.219h-.621c-.121 0-.242-.121-.242-.203zm1.626.61c0-.446.363-.813.812-.813.446 0 .813.367.813.812a.812.812 0 1 1-1.625 0zM1.34 11.39c-.082 0-.121-.04-.121-.121v-.57c0-.079.039-.122.12-.122h11.13c.078 0 .12.043.12.121v.57c0 .083-.042.122-.12.122zm17.746-4.063c.164 0 .285.043.406.164l3.492 3.899h-5.93V7.328zM6.902 12.242l3.989 1.586H2.918zm-2.84 8.082a2.012 2.012 0 0 1-2.03-2.031 2.01 2.01 0 0 1 2.03-2.027c1.137 0 2.028.89 2.028 2.027a2.01 2.01 0 0 1-2.027 2.031zm15.024 0a2.012 2.012 0 0 1-2.031-2.031 2.01 2.01 0 0 1 2.03-2.027 2.01 2.01 0 0 1 2.032 2.027 2.012 2.012 0 0 1-2.031 2.031zm3.898-2.437h-1.086a2.817 2.817 0 0 0-2.812-2.434h-.04a2.843 2.843 0 0 0-2.804 2.434H6.875a2.82 2.82 0 0 0-2.547-2.422c-.012 0-.02 0-.027-.004-.035 0-.07-.004-.102-.004-.047-.004-.094-.004-.136-.004-.047 0-.094 0-.141.004-.031 0-.067.004-.098.004-.011.004-.02.004-.031.004a2.82 2.82 0 0 0-2.547 2.422h-.27c-.081 0-.163-.078-.163-.16V14.64h14.214V7.656c0-.203.16-.328.325-.328h.89v4.184c0 .367.328.691.692.691h6.214v1.219h-2.03c-.243 0-.407.16-.407.406 0 .242.164.406.406.406h2.031v3.493c0 .082-.082.16-.164.16zm0 0"/>
</svg>
